symbols/web/security_update_good/materialsymbolsoutlined/security_update_good_wght500_40px.svg

<svg xmlns="http://www.w3.org/2000/svg" height="40" width="40"><path d="m18.417 25-4.667-4.667 1.958-1.958 2.709 2.75 6.291-6.333 1.959 1.958ZM11.25 38.583q-1.292 0-2.229-.937-.938-.938-.938-2.229V4.583q0-1.291.938-2.229.937-.937 2.229-.937h17.5q1.292 0 2.229.937.938.938.938 2.229v30.834q0 1.291-.938 2.229-.937.937-2.229.937Zm0-7.333h17.5V8.75h-17.5Zm0 2.792v1.375h17.5v-1.375Zm0-28.084h17.5V4.583h-17.5Zm0-1.375v1.375-1.375Zm0 30.834v-1.375 1.375Z"/></svg>

<svg xmlns="http://www.w3.org/2000/svg" height="40" width="40"><path d="M18.417 25 13.75 20.333 15.708 18.375 18.417 21.125 24.708 14.792 26.667 16.75ZM11.25 38.583Q9.958 38.583 9.021 37.646Q8.083 36.708 8.083 35.417V4.583Q8.083 3.292 9.021 2.354Q9.958 1.417 11.25 1.417H28.75Q30.042 1.417 30.979 2.354Q31.917 3.292 31.917 4.583V35.417Q31.917 36.708 30.979 37.646Q30.042 38.583 28.75 38.583ZM11.25 31.25H28.75V8.75H11.25ZM11.25 34.042V35.417Q11.25 35.417 11.25 35.417Q11.25 35.417 11.25 35.417H28.75Q28.75 35.417 28.75 35.417Q28.75 35.417 28.75 35.417V34.042ZM11.25 5.958H28.75V4.583Q28.75 4.583 28.75 4.583Q28.75 4.583 28.75 4.583H11.25Q11.25 4.583 11.25 4.583Q11.25 4.583 11.25 4.583ZM11.25 4.583Q11.25 4.583 11.25 4.583Q11.25 4.583 11.25 4.583V5.958V4.583Q11.25 4.583 11.25 4.583Q11.25 4.583 11.25 4.583ZM11.25 35.417Q11.25 35.417 11.25 35.417Q11.25 35.417 11.25 35.417V34.042V35.417Q11.25 35.417 11.25 35.417Q11.25 35.417 11.25 35.417Z"/></svg>
